; HEADER_BLOCK_START
; generated by OrcaSlicer 2.2.0 on 2024-11-24 at 18:36:43
; total layer number: 1
; filament_density: 1.24
; filament_diameter: 1.75
; max_z_height: 0.20
; HEADER_BLOCK_END

; THUMBNAIL_BLOCK_START

;
; THUMBNAIL_BLOCK_END

; THUMBNAIL_BLOCK_START

;
; THUMBNAIL_BLOCK_END

; THUMBNAIL_BLOCK_START

;
; THUMBNAIL_BLOCK_END

; external perimeters extrusion width = 0.40mm
; perimeters extrusion width = 0.42mm
; infill extrusion width = 0.45mm
; solid infill extrusion width = 0.45mm
; top infill extrusion width = 0.42mm
; first layer extrusion width = 0.50mm

; EXECUTABLE_BLOCK_START
EXCLUDE_OBJECT_DEFINE NAME=Layer_1_Circle_40mm_v0.01.step_id_0_copy_0 CENTER=175,175 POLYGON=[[155.001,174.756],[155.013,174.267],[155.037,173.778],[155.072,173.291],[155.12,172.804],[155.18,172.319],[155.251,171.835],[155.335,171.353],[155.43,170.874],[155.536,170.396],[155.655,169.922],[155.785,169.451],[155.926,168.983],[156.079,168.518],[156.243,168.058],[156.418,167.601],[156.605,167.149],[156.802,166.702],[157.01,166.259],[157.229,165.822],[157.459,165.391],[157.699,164.965],[157.95,164.545],[158.21,164.131],[158.481,163.724],[158.762,163.324],[159.052,162.93],[159.352,162.544],[159.661,162.165],[159.979,161.794],[160.307,161.431],[160.643,161.076],[160.987,160.729],[161.34,160.391],[161.702,160.061],[162.071,159.74],[162.448,159.429],[162.832,159.127],[163.224,158.834],[163.622,158.551],[164.028,158.278],[164.44,158.015],[164.858,157.762],[165.283,157.519],[165.713,157.287],[166.149,157.065],[166.59,156.854],[167.036,156.654],[167.487,156.464],[167.942,156.286],[168.402,156.119],[168.865,155.964],[169.333,155.82],[169.803,155.687],[170.277,155.566],[170.753,155.456],[171.232,155.358],[171.714,155.272],[172.197,155.197],[172.682,155.135],[173.168,155.084],[173.656,155.045],[174.144,155.018],[174.633,155.003],[175.121,155],[175.61,155.009],[176.099,155.03],[176.587,155.063],[177.074,155.108],[177.559,155.165],[178.043,155.233],[178.526,155.313],[179.006,155.405],[179.484,155.509],[179.959,155.625],[180.431,155.752],[180.9,155.89],[181.365,156.04],[181.827,156.202],[182.284,156.374],[182.738,156.558],[183.186,156.752],[183.63,156.958],[184.068,157.174],[184.501,157.401],[184.929,157.639],[185.35,157.887],[185.765,158.145],[186.174,158.413],[186.576,158.691],[186.971,158.979],[187.36,159.277],[187.74,159.584],[188.113,159.9],[188.478,160.225],[188.836,160.559],[189.185,160.901],[189.525,161.252],[189.857,161.611],[190.18,161.979],[190.493,162.354],[190.798,162.736],[191.093,163.126],[191.378,163.523],[191.654,163.927],[191.92,164.337],[192.175,164.754],[192.421,165.177],[192.656,165.606],[192.88,166.04],[193.094,166.48],[193.297,166.925],[193.489,167.375],[193.669,167.829],[193.839,168.287],[193.998,168.75],[194.145,169.216],[194.28,169.686],[194.405,170.159],[194.517,170.635],[194.618,171.113],[194.707,171.594],[194.784,172.077],[194.85,172.561],[194.904,173.047],[194.945,173.534],[194.975,174.022],[194.993,174.511],[194.999,175],[194.993,175.489],[194.975,175.978],[194.945,176.466],[194.904,176.953],[194.85,177.439],[194.784,177.923],[194.707,178.406],[194.618,178.887],[194.517,179.365],[194.405,179.841],[194.28,180.314],[194.145,180.784],[193.998,181.25],[193.839,181.713],[193.669,182.171],[193.489,182.625],[193.297,183.075],[193.094,183.52],[192.88,183.96],[192.656,184.394],[192.421,184.823],[192.175,185.246],[191.92,185.663],[191.654,186.073],[191.378,186.477],[191.093,186.874],[190.798,187.264],[190.493,187.646],[190.18,188.021],[189.857,188.389],[189.525,188.748],[189.185,189.099],[188.836,189.441],[188.478,189.775],[188.113,190.1],[187.74,190.416],[187.36,190.723],[186.971,191.021],[186.576,191.309],[186.174,191.587],[185.765,191.855],[185.35,192.113],[184.929,192.361],[184.501,192.599],[184.068,192.826],[183.63,193.042],[183.186,193.248],[182.738,193.442],[182.284,193.626],[181.827,193.798],[181.365,193.96],[180.9,194.11],[180.431,194.248],[179.959,194.375],[179.484,194.491],[179.006,194.595],[178.526,194.687],[178.043,194.767],[177.559,194.835],[177.074,194.892],[176.587,194.937],[176.099,194.97],[175.61,194.991],[175.121,195],[174.633,194.997],[174.144,194.982],[173.656,194.955],[173.168,194.916],[172.682,194.865],[172.197,194.803],[171.714,194.728],[171.232,194.642],[170.753,194.544],[170.277,194.434],[169.803,194.313],[169.333,194.18],[168.865,194.036],[168.402,193.881],[167.942,193.714],[167.487,193.536],[167.036,193.346],[166.59,193.146],[166.149,192.935],[165.713,192.713],[165.283,192.481],[164.858,192.238],[164.44,191.985],[164.028,191.722],[163.622,191.449],[163.224,191.166],[162.832,190.873],[162.448,190.571],[162.071,190.26],[161.702,189.939],[161.34,189.609],[160.987,189.271],[160.643,188.924],[160.307,188.569],[159.979,188.206],[159.661,187.835],[159.352,187.456],[159.052,187.07],[158.762,186.676],[158.481,186.276],[158.21,185.869],[157.95,185.455],[157.699,185.035],[157.459,184.609],[157.229,184.178],[157.01,183.741],[156.802,183.298],[156.605,182.851],[156.418,182.399],[156.243,181.942],[156.079,181.482],[155.926,181.017],[155.785,180.549],[155.655,180.078],[155.536,179.604],[155.43,179.126],[155.335,178.647],[155.251,178.165],[155.18,177.681],[155.12,177.196],[155.072,176.709],[155.037,176.222],[155.013,175.733],[155.001,175.244],[155.001,174.756]]
M73 P0 R0
;TYPE:Custom
PRINT_START EXTRUDER_TEMP=235 BED_TEMP=65
G90
G21
M83 ; use relative distances for extrusion
; filament start gcode
M106 S0
;LAYER_CHANGE
;Z:0.2
;HEIGHT:0.2
TIMELAPSE_TAKE_FRAME
G92 E0
G1 E-.5 F1800
;_SET_FAN_SPEED_CHANGING_LAYER
SET_VELOCITY_LIMIT ACCEL=3000 ACCEL_TO_DECEL=1500
G1 Z.6 F36000
G1 X159.407 Y159.158
M73 P1 R0
G1 Z.6
M73 P1 R0
G1 Z.2
G1 E.5 F1800
;TYPE:Skirt
;WIDTH:0.5
G1 F3000
G1 X161.028 Y157.711 E.08093
G1 X162.783 Y156.43 E.08093
G1 X164.654 Y155.326 E.08093
G1 X166.625 Y154.41 E.08093
G1 X168.727 Y153.675 E.08296
M73 P2 R0
G1 X170.839 Y153.164 E.08093
M73 P2 R0
G1 X172.991 Y152.862 E.08093
G1 X175.162 Y152.772 E.08093
G1 X177.332 Y152.894 E.08093
G1 X179.479 Y153.228 E.08093
G1 X181.583 Y153.769 E.08093
G1 X183.625 Y154.513 E.08093
G1 X185.584 Y155.453 E.08093
G1 X187.442 Y156.58 E.08093
G1 X189.181 Y157.883 E.08093
M73 P3 R0
G1 X190.784 Y159.35 E.08093
M73 P3 R0
G1 X192.237 Y160.966 E.08093
G1 X193.525 Y162.716 E.08093
G1 X194.636 Y164.583 E.08093
G1 X195.559 Y166.55 E.08093
G1 X196.286 Y168.598 E.08093
G1 X196.809 Y170.707 E.08093
G1 X197.124 Y172.857 E.08093
G1 X197.228 Y175.027 E.08093
G1 X197.119 Y177.197 E.08093
M73 P4 R0
G1 X196.799 Y179.347 E.08093
M73 P4 R0
G1 X196.27 Y181.454 E.08093
G1 X195.538 Y183.5 E.08093
G1 X194.61 Y185.465 E.08093
G1 X193.219 Y187.734 E.09912
G1 X191.889 Y189.452 E.08093
G1 X190.397 Y191.032 E.08093
G1 X188.758 Y192.458 E.08093
G1 X186.988 Y193.718 E.08093
G1 X185.103 Y194.799 E.08093
M73 P5 R0
G1 X183.121 Y195.691 E.08093
M73 P5 R0
G1 X181.062 Y196.385 E.08093
G1 X178.945 Y196.875 E.08093
G1 X176.791 Y197.156 E.08093
G1 X174.619 Y197.225 E.08093
G1 X172.451 Y197.082 E.08093
G1 X170.307 Y196.727 E.08093
G1 X168.208 Y196.166 E.08093
G1 X166.174 Y195.401 E.08093
G1 X164.224 Y194.442 E.08093
G1 X162.377 Y193.297 E.08093
M73 P6 R0
G1 X160.651 Y191.977 E.08093
M73 P6 R0
G1 X159.062 Y190.495 E.08093
G1 X157.625 Y188.865 E.08093
G1 X156.355 Y187.103 E.08093
G1 X155.262 Y185.224 E.08093
G1 X154.358 Y183.249 E.08093
G1 X153.651 Y181.194 E.08093
G1 X153.148 Y179.08 E.08093
G1 X152.855 Y176.927 E.08093
G1 X152.772 Y174.756 E.08093
M73 P7 R0
G1 X152.902 Y172.587 E.08093
M73 P7 R0
G1 X153.244 Y170.441 E.08093
G1 X153.793 Y168.338 E.08093
G1 X154.544 Y166.299 E.08093
G1 X155.492 Y164.344 E.08093
G1 X156.625 Y162.49 E.08093
G1 X157.934 Y160.756 E.08093
G1 X159.38 Y159.187 E.07944
; printing object Layer 1 Circle 40mm v0.01.step id:0 copy 0
;WIPE_START
G1 X160.87 Y157.853 E-.5
;WIPE_END
EXCLUDE_OBJECT_START NAME=Layer_1_Circle_40mm_v0.01.step_id_0_copy_0
G1 Z.6 F36000
M73 P8 R0
G1 X194.4 Y171.891 Z.6
M73 P8 R0
G1 Z.2
G1 E.5 F1800
;TYPE:Outer wall
G1 X194.555 Y173.082 E.04476
G1 X194.626 Y174.04 E.03575
G1 X194.649 Y175 E.03578
G1 X194.626 Y175.96 E.03578
G1 X194.555 Y176.919 E.03578
M73 P9 R0
G1 X194.438 Y177.872 E.03578
M73 P9 R0
G1 X194.275 Y178.819 E.03578
G1 X194.065 Y179.756 E.03578
G1 X193.81 Y180.683 E.03578
G1 X193.509 Y181.595 E.03578
G1 X193.165 Y182.492 E.03578
G1 X192.777 Y183.371 E.03578
G1 X192.347 Y184.23 E.03578
G1 X191.875 Y185.067 E.03578
G1 X191.363 Y185.879 E.03578
G1 X190.811 Y186.666 E.03578
G1 X190.222 Y187.425 E.03578
G1 X189.597 Y188.154 E.03578
G1 X188.936 Y188.852 E.03578
M73 P10 R0
G1 X188.243 Y189.517 E.03578
M73 P10 R0
G1 X187.517 Y190.147 E.03578
G1 X186.762 Y190.74 E.03578
G1 X185.979 Y191.296 E.03578
G1 X185.169 Y191.814 E.03579
G1 X184.335 Y192.291 E.03578
G1 X183.479 Y192.726 E.03578
G1 X182.602 Y193.12 E.03578
G1 X181.707 Y193.469 E.03578
G1 X180.797 Y193.775 E.03578
G1 X179.872 Y194.036 E.03578
G1 X178.936 Y194.252 E.03578
G1 X177.99 Y194.421 E.03578
G1 X177.037 Y194.544 E.03578
M73 P11 R0
G1 X176.08 Y194.62 E.03578
M73 P11 R0
G1 X175.119 Y194.65 E.03578
G1 X174.159 Y194.632 E.03578
G1 X173.2 Y194.567 E.03578
G1 X172.246 Y194.456 E.03578
G1 X171.298 Y194.298 E.03578
G1 X170.36 Y194.094 E.03578
G1 X169.432 Y193.845 E.03578
G1 X168.517 Y193.55 E.03579
G1 X167.618 Y193.211 E.03578
G1 X166.737 Y192.829 E.03578
G1 X165.876 Y192.403 E.03578
G1 X165.036 Y191.937 E.03579
G1 X164.22 Y191.429 E.03578
M73 P12 R0
G1 X163.43 Y190.883 E.03578
M73 P12 R0
G1 X162.667 Y190.299 E.03578
G1 X161.934 Y189.678 E.03578
G1 X161.233 Y189.021 E.03578
G1 X160.564 Y188.332 E.03578
G1 X159.929 Y187.61 E.03578
G1 X159.331 Y186.859 E.03578
G1 X158.77 Y186.079 E.03578
G1 X158.248 Y185.272 E.03578
G1 X157.766 Y184.441 E.03578
G1 X157.325 Y183.588 E.03579
G1 X156.927 Y182.713 E.03578
G1 X156.571 Y181.821 E.03578
G1 X156.26 Y180.912 E.03578
M73 P13 R0
G1 X155.993 Y179.989 E.03578
M73 P13 R0
G1 X155.772 Y179.054 E.03578
G1 X155.597 Y178.11 E.03578
G1 X155.468 Y177.157 E.03578
G1 X155.386 Y176.2 E.03578
G1 X155.351 Y175.24 E.03578
G1 X155.363 Y174.28 E.03578
G1 X155.421 Y173.321 E.03578
G1 X155.527 Y172.366 E.03578
G1 X155.679 Y171.417 E.03578
G1 X155.877 Y170.477 E.03578
G1 X156.121 Y169.548 E.03578
G1 X156.41 Y168.632 E.03578
G1 X156.743 Y167.731 E.03578
M73 P14 R0
G1 X157.121 Y166.847 E.03578
M73 P14 R0
G1 X157.54 Y165.983 E.03578
G1 X158.002 Y165.14 E.03578
G1 X158.504 Y164.321 E.03578
G1 X159.046 Y163.528 E.03578
G1 X159.626 Y162.762 E.03578
G1 X160.242 Y162.025 E.03578
G1 X160.894 Y161.319 E.03578
G1 X161.58 Y160.646 E.03578
G1 X162.297 Y160.008 E.03578
G1 X163.045 Y159.405 E.03578
G1 X163.822 Y158.839 E.03578
G1 X164.625 Y158.312 E.03578
G1 X165.453 Y157.825 E.03578
M73 P15 R0
G1 X166.304 Y157.379 E.03578
M73 P15 R0
G1 X167.175 Y156.975 E.03578
G1 X168.066 Y156.614 E.03579
G1 X168.973 Y156.297 E.03578
G1 X169.894 Y156.025 E.03578
G1 X170.828 Y155.798 E.03578
G1 X171.771 Y155.617 E.03578
G1 X172.722 Y155.482 E.03578
G1 X173.679 Y155.394 E.03578
G1 X174.639 Y155.353 E.03578
G1 X175.6 Y155.359 E.03578
G1 X176.559 Y155.412 E.03578
G1 X177.514 Y155.512 E.03578
G1 X178.464 Y155.658 E.03578
M73 P16 R0
G1 X179.405 Y155.85 E.03579
M73 P16 R0
G1 X180.336 Y156.089 E.03578
G1 X181.254 Y156.372 E.03578
G1 X182.157 Y156.7 E.03578
G1 X183.043 Y157.072 E.03578
G1 X183.909 Y157.486 E.03578
G1 X184.755 Y157.943 E.03578
G1 X185.577 Y158.44 E.03578
G1 X186.374 Y158.977 E.03578
G1 X187.143 Y159.552 E.03578
G1 X187.884 Y160.164 E.03578
G1 X188.593 Y160.811 E.03578
G1 X189.271 Y161.493 E.03578
G1 X189.914 Y162.206 E.03578
M73 P17 R0
G1 X190.521 Y162.951 E.03579
M73 P17 R0
G1 X191.092 Y163.724 E.03578
G1 X191.624 Y164.524 E.03578
G1 X192.116 Y165.349 E.03578
G1 X192.567 Y166.197 E.03578
G1 X192.976 Y167.066 E.03579
G1 X193.343 Y167.954 E.03578
G1 X193.665 Y168.859 E.03578
G1 X193.943 Y169.779 E.03579
G1 X194.175 Y170.71 E.03575
G1 X194.396 Y171.871 E.04401
G1 X193.949 Y171.963 F36000
;TYPE:Inner wall
G1 F1800
G1 X194.1 Y173.129 E.04378
G1 X194.169 Y174.062 E.03486
M73 P18 R0
G1 X194.192 Y175 E.03495
M73 P18 R0
G1 X194.169 Y175.938 E.03495
G1 X194.1 Y176.874 E.03495
G1 X193.986 Y177.805 E.03495
G1 X193.826 Y178.73 E.03495
G1 X193.621 Y179.646 E.03495
G1 X193.372 Y180.55 E.03495
G1 X193.079 Y181.442 E.03495
G1 X192.742 Y182.318 E.03495
G1 X192.363 Y183.176 E.03495
G1 X191.943 Y184.015 E.03495
G1 X191.482 Y184.832 E.03495
G1 X190.982 Y185.626 E.03495
G1 X190.443 Y186.395 E.03495
M73 P19 R0
G1 X189.868 Y187.136 E.03495
M73 P19 R0
G1 X189.257 Y187.848 E.03495
G1 X188.612 Y188.53 E.03495
G1 X187.934 Y189.179 E.03495
G1 X187.226 Y189.794 E.03495
G1 X186.488 Y190.374 E.03495
G1 X185.723 Y190.917 E.03495
G1 X184.932 Y191.422 E.03495
G1 X184.118 Y191.888 E.03495
G1 X183.281 Y192.314 E.03495
G1 X182.425 Y192.698 E.03495
G1 X181.551 Y193.04 E.03495
G1 X180.662 Y193.338 E.03495
G1 X179.759 Y193.593 E.03495
M73 P20 R0
G1 X178.844 Y193.804 E.03495
M73 P20 R0
G1 X177.921 Y193.969 E.03495
G1 X176.99 Y194.089 E.03495
G1 X176.054 Y194.164 E.03495
G1 X175.117 Y194.192 E.03495
G1 X174.178 Y194.175 E.03495
G1 X173.242 Y194.112 E.03495
G1 X172.31 Y194.003 E.03495
G1 X171.384 Y193.849 E.03495
G1 X170.468 Y193.65 E.03495
G1 X169.561 Y193.406 E.03495
G1 X168.668 Y193.118 E.03495
G1 X167.79 Y192.787 E.03495
G1 X166.929 Y192.414 E.03495
G1 X166.088 Y191.998 E.03495
M73 P21 R0
G1 X165.268 Y191.543 E.03495
M73 P21 R0
G1 X164.471 Y191.047 E.03495
G1 X163.699 Y190.513 E.03495
G1 X162.954 Y189.943 E.03495
G1 X162.238 Y189.336 E.03495
G1 X161.553 Y188.695 E.03495
G1 X160.9 Y188.022 E.03495
G1 X160.28 Y187.317 E.03495
G1 X159.696 Y186.583 E.03495
G1 X159.148 Y185.821 E.03495
G1 X158.638 Y185.033 E.03495
G1 X158.167 Y184.222 E.03495
G1 X157.736 Y183.388 E.03495
G1 X157.347 Y182.534 E.03495
M73 P22 R0
G1 X157 Y181.662 E.03495
M73 P22 R0
G1 X156.696 Y180.774 E.03495
G1 X156.435 Y179.873 E.03495
G1 X156.219 Y178.96 E.03495
G1 X156.048 Y178.037 E.03495
G1 X155.923 Y177.107 E.03495
G1 X155.842 Y176.172 E.03495
G1 X155.808 Y175.235 E.03495
G1 X155.819 Y174.296 E.03495
G1 X155.877 Y173.36 E.03495
G1 X155.98 Y172.427 E.03495
G1 X156.128 Y171.5 E.03495
G1 X156.322 Y170.582 E.03495
G1 X156.56 Y169.675 E.03495
M73 P23 R0
G1 X156.842 Y168.78 E.03495
M73 P23 R0
G1 X157.168 Y167.9 E.03495
G1 X157.537 Y167.037 E.03495
G1 X157.947 Y166.193 E.03495
G1 X158.397 Y165.37 E.03495
G1 X158.888 Y164.57 E.03495
G1 X159.417 Y163.795 E.03495
G1 X159.983 Y163.047 E.03495
G1 X160.586 Y162.327 E.03495
G1 X161.222 Y161.638 E.03495
G1 X161.892 Y160.98 E.03495
G1 X162.593 Y160.356 E.03495
G1 X163.323 Y159.767 E.03495
G1 X164.082 Y159.215 E.03495
G1 X164.866 Y158.7 E.03495
M73 P24 R0
G1 X165.675 Y158.224 E.03495
M73 P24 R0
G1 X166.506 Y157.789 E.03495
G1 X167.358 Y157.394 E.03495
G1 X168.227 Y157.042 E.03495
G1 X169.113 Y156.732 E.03495
G1 X170.013 Y156.466 E.03495
G1 X170.925 Y156.245 E.03495
G1 X171.846 Y156.068 E.03495
G1 X172.775 Y155.937 E.03495
G1 X173.71 Y155.851 E.03495
G1 X174.647 Y155.811 E.03495
G1 X175.586 Y155.816 E.03495
G1 X176.523 Y155.868 E.03495
G1 X177.456 Y155.965 E.03495
M73 P25 R0
G1 X178.383 Y156.108 E.03495
M73 P25 R0
G1 X179.303 Y156.296 E.03495
G1 X180.212 Y156.529 E.03495
G1 X181.108 Y156.806 E.03495
G1 X181.99 Y157.126 E.03495
G1 X182.856 Y157.489 E.03495
G1 X183.702 Y157.894 E.03495
G1 X184.528 Y158.34 E.03495
G1 X185.331 Y158.825 E.03495
G1 X186.109 Y159.35 E.03495
G1 X186.861 Y159.911 E.03495
G1 X187.584 Y160.509 E.03495
G1 X188.277 Y161.142 E.03495
G1 X188.939 Y161.807 E.03495
M73 P26 R0
G1 X189.567 Y162.504 E.03495
M73 P26 R0
G1 X190.16 Y163.231 E.03495
G1 X190.717 Y163.986 E.03495
G1 X191.237 Y164.768 E.03495
G1 X191.718 Y165.573 E.03495
G1 X192.158 Y166.402 E.03495
G1 X192.558 Y167.251 E.03495
G1 X192.916 Y168.118 E.03495
G1 X193.231 Y169.002 E.03495
G1 X193.502 Y169.901 E.03495
G1 X193.729 Y170.808 E.03485
G1 X193.945 Y171.943 E.04304
G1 X193.497 Y172.035 F36000
G1 F1800
G1 X193.646 Y173.175 E.0428
G1 X193.712 Y174.084 E.03396
M73 P27 R0
G1 X193.735 Y175 E.03412
M73 P27 R0
G1 X193.712 Y175.916 E.03412
G1 X193.645 Y176.829 E.03412
G1 X193.534 Y177.738 E.03412
G1 X193.378 Y178.641 E.03412
G1 X193.178 Y179.535 E.03412
