; HEADER_BLOCK_START
; generated by OrcaSlicer 2.2.0 on 2024-11-24 at 18:35:50
; total layer number: 1
; filament_density: 1.24
; filament_diameter: 1.75
; max_z_height: 0.20
; HEADER_BLOCK_END

; THUMBNAIL_BLOCK_START

;
; THUMBNAIL_BLOCK_END

; THUMBNAIL_BLOCK_START

;
; THUMBNAIL_BLOCK_END

; THUMBNAIL_BLOCK_START

;
; THUMBNAIL_BLOCK_END

; external perimeters extrusion width = 0.40mm
; perimeters extrusion width = 0.42mm
; infill extrusion width = 0.45mm
; solid infill extrusion width = 0.45mm
; top infill extrusion width = 0.42mm
; first layer extrusion width = 0.50mm

; EXECUTABLE_BLOCK_START
EXCLUDE_OBJECT_DEFINE NAME=Layer_1_Circle_15mm_v0.01.step_id_0_copy_0 CENTER=175,175 POLYGON=[[167.5,175],[167.506,174.702],[167.524,174.404],[167.553,174.107],[167.595,173.812],[167.648,173.519],[167.712,173.227],[167.789,172.939],[167.876,172.654],[167.975,172.373],[168.085,172.095],[168.206,171.823],[168.338,171.555],[168.48,171.293],[168.633,171.037],[168.795,170.787],[168.968,170.543],[169.15,170.307],[169.341,170.078],[169.541,169.857],[169.75,169.644],[169.967,169.44],[170.192,169.244],[170.424,169.057],[170.664,168.88],[170.911,168.713],[171.164,168.555],[171.423,168.408],[171.688,168.271],[171.959,168.144],[172.234,168.029],[172.513,167.924],[172.796,167.831],[173.083,167.749],[173.373,167.679],[173.665,167.62],[173.959,167.573],[174.256,167.537],[174.553,167.513],[174.851,167.501],[175.149,167.501],[175.447,167.513],[175.744,167.537],[176.041,167.573],[176.335,167.62],[176.627,167.679],[176.917,167.749],[177.204,167.831],[177.487,167.924],[177.766,168.029],[178.041,168.144],[178.312,168.271],[178.577,168.408],[178.836,168.555],[179.089,168.713],[179.336,168.88],[179.576,169.057],[179.808,169.244],[180.033,169.44],[180.25,169.644],[180.459,169.857],[180.659,170.078],[180.85,170.307],[181.032,170.543],[181.205,170.787],[181.367,171.037],[181.52,171.293],[181.662,171.555],[181.794,171.823],[181.915,172.095],[182.025,172.373],[182.124,172.654],[182.211,172.939],[182.288,173.227],[182.352,173.519],[182.405,173.812],[182.447,174.107],[182.476,174.404],[182.494,174.702],[182.5,175],[182.494,175.298],[182.476,175.596],[182.447,175.893],[182.405,176.188],[182.352,176.481],[182.288,176.773],[182.211,177.061],[182.124,177.346],[182.025,177.627],[181.915,177.905],[181.794,178.177],[181.662,178.445],[181.52,178.707],[181.367,178.963],[181.205,179.213],[181.032,179.457],[180.85,179.693],[180.659,179.922],[180.459,180.143],[180.25,180.356],[180.033,180.56],[179.808,180.756],[179.576,180.943],[179.336,181.12],[179.089,181.287],[178.836,181.445],[178.577,181.592],[178.312,181.729],[178.041,181.856],[177.766,181.971],[177.487,182.076],[177.204,182.169],[176.917,182.251],[176.627,182.321],[176.335,182.38],[176.041,182.427],[175.744,182.463],[175.447,182.487],[175.149,182.499],[174.851,182.499],[174.553,182.487],[174.256,182.463],[173.959,182.427],[173.665,182.38],[173.373,182.321],[173.083,182.251],[172.796,182.169],[172.513,182.076],[172.234,181.971],[171.959,181.856],[171.688,181.729],[171.423,181.592],[171.164,181.445],[170.911,181.287],[170.664,181.12],[170.424,180.943],[170.192,180.756],[169.967,180.56],[169.75,180.356],[169.541,180.143],[169.341,179.922],[169.15,179.693],[168.968,179.457],[168.795,179.213],[168.633,178.963],[168.48,178.707],[168.338,178.445],[168.206,178.177],[168.085,177.905],[167.975,177.627],[167.876,177.346],[167.789,177.061],[167.712,176.773],[167.648,176.481],[167.595,176.188],[167.553,175.893],[167.524,175.596],[167.506,175.298],[167.5,175]]
M73 P0 R0
;TYPE:Custom
PRINT_START EXTRUDER_TEMP=235 BED_TEMP=65
G90
G21
M83 ; use relative distances for extrusion
; filament start gcode
M106 S0
;LAYER_CHANGE
;Z:0.2
;HEIGHT:0.2
TIMELAPSE_TAKE_FRAME
G92 E0
G1 E-.5 F1800
;_SET_FAN_SPEED_CHANGING_LAYER
SET_VELOCITY_LIMIT ACCEL=3000 ACCEL_TO_DECEL=1500
G1 Z.6 F36000
G1 X168.222 Y168.022
M73 P6 R0
G1 Z.6
M73 P6 R0
G1 Z.2
G1 E.5 F1800
;TYPE:Skirt
;WIDTH:0.5
M73 P7 R0
G1 F3000
M73 P7 R0
G1 X169.733 Y166.821 E.07193
G1 X171.453 Y165.942 E.07193
G1 X173.312 Y165.419 E.07193
M73 P8 R0
G1 X175.238 Y165.275 E.07193
M73 P8 R0
G1 X177.154 Y165.513 E.07193
G1 X178.985 Y166.126 E.07193
M73 P9 R0
G1 X180.66 Y167.088 E.07193
M73 P9 R0
G1 X182.111 Y168.362 E.07193
M73 P10 R0
G1 X183.282 Y169.897 E.07193
M73 P10 R0
G1 X184.127 Y171.634 E.07193
G1 X184.612 Y173.503 E.07193
M73 P11 R0
G1 X184.722 Y175.342 E.06864
M73 P11 R0
G1 X184.463 Y177.256 E.07193
G1 X183.831 Y179.081 E.07193
M73 P12 R0
G1 X182.851 Y180.745 E.07193
M73 P12 R0
G1 X181.778 Y181.978 E.06087
M73 P13 R0
G1 X180.267 Y183.179 E.07193
M73 P13 R0
G1 X178.547 Y184.058 E.07193
G1 X176.688 Y184.581 E.07193
M73 P14 R0
G1 X174.762 Y184.725 E.07193
M73 P14 R0
G1 X172.846 Y184.487 E.07193
G1 X171.096 Y183.91 E.06864
M73 P15 R0
G1 X169.412 Y182.963 E.07193
M73 P15 R0
G1 X167.95 Y181.703 E.07193
G1 X166.764 Y180.178 E.07193
M73 P16 R0
G1 X165.904 Y178.449 E.07193
M73 P16 R0
G1 X165.402 Y176.585 E.07193
M73 P17 R0
G1 X165.278 Y174.658 E.07193
M73 P17 R0
G1 X165.472 Y173.035 E.06086
G1 X166.048 Y171.192 E.07193
M73 P18 R0
G1 X166.977 Y169.499 E.07193
M73 P18 R0
G1 X168.196 Y168.053 E.07044
; printing object Layer 1 Circle 15mm v0.01.step id:0 copy 0
;WIPE_START
G1 X169.733 Y166.821 E-.49259
M73 P19 R0
G1 X169.76 Y166.807 E-.00741
M73 P19 R0
;WIPE_END
EXCLUDE_OBJECT_START NAME=Layer_1_Circle_15mm_v0.01.step_id_0_copy_0
G1 Z.6 F36000
G1 X173.172 Y181.912 Z.6
M73 P21 R0
G1 Z.2
M73 P21 R0
G1 E.5 F1800
;TYPE:Outer wall
G1 X172.36 Y181.645 E.03184
M73 P22 R0
G1 X171.845 Y181.416 E.02099
M73 P22 R0
G1 X171.1 Y180.992 E.03194
G1 X170.638 Y180.665 E.02108
G1 X170.203 Y180.302 E.02112
M73 P23 R0
G1 X169.701 Y179.797 E.02651
M73 P23 R0
G1 X169.248 Y179.247 E.02652
G1 X168.931 Y178.779 E.02106
G1 X168.586 Y178.156 E.02652
G1 X168.304 Y177.506 E.02642
M73 P24 R0
G1 X168.052 Y176.687 E.03188
M73 P24 R0
G1 X167.941 Y176.135 E.02099
G1 X167.856 Y175.282 E.03194
G1 X167.856 Y174.717 E.02102
M73 P25 R0
G1 X167.921 Y174.008 E.02652
M73 P25 R0
G1 X168.053 Y173.311 E.02642
G1 X168.304 Y172.493 E.03188
G1 X168.523 Y171.973 E.02103
M73 P26 R0
G1 X168.857 Y171.344 E.02652
M73 P26 R0
G1 X169.249 Y170.752 E.02646
G1 X169.701 Y170.203 E.02646
G1 X170.203 Y169.698 E.02652
G1 X170.636 Y169.336 E.02103
M73 P27 R0
G1 X171.344 Y168.856 E.03188
M73 P27 R0
G1 X171.972 Y168.525 E.02642
G1 X172.63 Y168.254 E.02652
G1 X173.17 Y168.088 E.02103
M73 P28 R0
G1 X174.011 Y167.919 E.03194
M73 P28 R0
G1 X174.572 Y167.863 E.02103
G1 X175.284 Y167.857 E.02652
G1 X175.993 Y167.92 E.02652
G1 X176.551 Y168.021 E.02112
M73 P29 R0
G1 X177.099 Y168.165 E.02108
M73 P29 R0
G1 X177.902 Y168.466 E.03193
G1 X178.407 Y168.714 E.02099
G1 X179.135 Y169.167 E.03194
M73 P30 R0
G1 X179.582 Y169.511 E.02099
M73 P30 R0
G1 X180.204 Y170.098 E.03184
G1 X180.752 Y170.754 E.03184
G1 X181.069 Y171.22 E.02099
G1 X181.478 Y171.974 E.03194
M73 P31 R0
G1 X181.697 Y172.495 E.02108
M73 P31 R0
G1 X181.874 Y173.033 E.02108
G1 X182.059 Y173.868 E.03184
G1 X182.144 Y174.718 E.03184
M73 P32 R0
G1 X182.144 Y175.282 E.02099
M73 P32 R0
G1 X182.059 Y176.135 E.03194
G1 X181.948 Y176.687 E.02099
G1 X181.696 Y177.507 E.03193
M73 P33 R0
G1 X181.477 Y178.029 E.02108
M73 P33 R0
G1 X181.217 Y178.532 E.02108
G1 X180.749 Y179.25 E.03194
G1 X180.397 Y179.69 E.02099
G1 X179.796 Y180.302 E.03193
M73 P34 R0
G1 X179.364 Y180.663 E.02099
M73 P34 R0
G1 X178.654 Y181.145 E.03194
G1 X178.159 Y181.414 E.02099
G1 X177.369 Y181.746 E.03194
M73 P35 R0
G1 X176.83 Y181.912 E.02099
M73 P35 R0
G1 X175.989 Y182.081 E.03194
G1 X175.429 Y182.137 E.02099
G1 X174.571 Y182.137 E.03194
M73 P36 R0
G1 X174.011 Y182.081 E.02099
M73 P36 R0
G1 X173.192 Y181.916 E.0311
G1 X173.29 Y181.469 F36000
;TYPE:Inner wall
G1 F1800
G1 X172.525 Y181.218 E.02998
G1 X172.051 Y181.007 E.0193
M73 P37 R0
G1 X171.346 Y180.606 E.03024
M73 P37 R0
G1 X170.917 Y180.303 E.01956
G1 X170.512 Y179.964 E.01966
G1 X170.04 Y179.49 E.02492
G1 X169.615 Y178.973 E.02492
M73 P38 R0
G1 X169.321 Y178.54 E.0195
M73 P38 R0
G1 X168.997 Y177.954 E.02492
G1 X168.733 Y177.347 E.02466
G1 X168.496 Y176.575 E.03008
G1 X168.394 Y176.067 E.0193
M73 P39 R0
G1 X168.313 Y175.259 E.03024
M73 P39 R0
G1 X168.313 Y174.738 E.0194
G1 X168.374 Y174.072 E.02493
G1 X168.497 Y173.421 E.02466
G1 X168.734 Y172.649 E.03008
M73 P40 R0
G1 X168.936 Y172.169 E.0194
M73 P40 R0
G1 X169.251 Y171.578 E.02492
G1 X169.618 Y171.024 E.02477
G1 X170.04 Y170.51 E.02477
M73 P41 R0
G1 X170.512 Y170.036 E.02493
M73 P41 R0
G1 X170.912 Y169.702 E.0194
G1 X171.58 Y169.248 E.03008
G1 X172.166 Y168.939 E.02466
G1 X172.785 Y168.685 E.02492
M73 P42 R0
G1 X173.283 Y168.532 E.0194
M73 P42 R0
G1 X174.079 Y168.372 E.03024
G1 X174.597 Y168.32 E.0194
G1 X175.266 Y168.315 E.02492
G1 X175.933 Y168.373 E.02493
M73 P43 R0
G1 X176.452 Y168.467 E.01966
M73 P43 R0
G1 X176.96 Y168.601 E.01956
G1 X177.72 Y168.886 E.03024
G1 X178.185 Y169.114 E.0193
G1 X178.874 Y169.544 E.03024
M73 P44 R0
G1 X179.285 Y169.86 E.0193
M73 P44 R0
G1 X179.871 Y170.411 E.02998
G1 X180.387 Y171.029 E.02998
G1 X180.678 Y171.458 E.0193
M73 P45 R0
G1 X181.065 Y172.172 E.03024
M73 P45 R0
G1 X181.268 Y172.656 E.01956
G1 X181.433 Y173.154 E.01956
G1 X181.607 Y173.94 E.02998
G1 X181.687 Y174.741 E.02998
M73 P46 R0
G1 X181.687 Y175.259 E.01929
M73 P46 R0
G1 X181.606 Y176.067 E.03024
G1 X181.504 Y176.575 E.0193
G1 X181.266 Y177.351 E.03024
M73 P47 R0
G1 X181.062 Y177.835 E.01956
M73 P47 R0
G1 X180.821 Y178.301 E.01956
G1 X180.378 Y178.982 E.03024
G1 X180.054 Y179.386 E.0193
G1 X179.486 Y179.966 E.03024
M73 P48 R0
G1 X179.088 Y180.298 E.0193
M73 P48 R0
G1 X178.417 Y180.754 E.03024
G1 X177.961 Y181.001 E.0193
G1 X177.213 Y181.316 E.03024
G1 X176.717 Y181.468 E.0193
M73 P49 R0
G1 X175.921 Y181.628 E.03024
M73 P49 R0
G1 X175.406 Y181.68 E.0193
G1 X174.594 Y181.68 E.03024
G1 X174.079 Y181.628 E.0193
G1 X173.309 Y181.473 E.02923
M73 P50 R0
G1 X173.407 Y181.027 F36000
M73 P50 R0
G1 F1800
G1 X172.69 Y180.791 E.02812
G1 X172.258 Y180.599 E.0176
G1 X171.591 Y180.22 E.02855
G1 X171.196 Y179.94 E.01803
M73 P51 R0
G1 X170.821 Y179.627 E.01821
M73 P51 R0
G1 X170.379 Y179.183 E.02333
G1 X169.981 Y178.699 E.02333
G1 X169.711 Y178.3 E.01795
G1 X169.407 Y177.752 E.02333
M73 P52 R0
G1 X169.163 Y177.188 E.0229
M73 P52 R0
G1 X168.939 Y176.462 E.02829
G1 X168.846 Y175.999 E.0176
G1 X168.77 Y175.236 E.02855
G1 X168.77 Y174.759 E.01777
M73 P53 R0
G1 X168.827 Y174.135 E.02333
M73 P53 R0
G1 X168.941 Y173.531 E.0229
G1 X169.165 Y172.805 E.02829
G1 X169.349 Y172.365 E.01777
G1 X169.644 Y171.812 E.02333
M73 P54 R0
G1 X169.986 Y171.296 E.02307
M73 P54 R0
G1 X170.379 Y170.817 E.02307
G1 X170.821 Y170.373 E.02333
G1 X171.187 Y170.067 E.01777
G1 X171.816 Y169.641 E.02829
M73 P55 R0
G1 X172.36 Y169.354 E.0229
M73 P55 R0
G1 X172.939 Y169.116 E.02333
G1 X173.395 Y168.976 E.01777
G1 X174.147 Y168.824 E.02855
G1 X174.621 Y168.777 E.01777
G1 X175.248 Y168.772 E.02333
M73 P56 R0
G1 X175.872 Y168.827 E.02333
M73 P56 R0
G1 X176.353 Y168.914 E.0182
G1 X176.821 Y169.037 E.01803
G1 X177.539 Y169.306 E.02855
G1 X177.963 Y169.515 E.0176
M73 P57 R0
G1 X178.614 Y169.92 E.02855
M73 P57 R0
G1 X178.988 Y170.208 E.0176
G1 X179.537 Y170.725 E.02811
G1 X180.021 Y171.305 E.02812
G1 X180.287 Y171.696 E.0176
M73 P58 R0
G1 X180.652 Y172.369 E.02855
M73 P58 R0
G1 X180.84 Y172.816 E.01803
G1 X180.991 Y173.276 E.01803
G1 X181.155 Y174.013 E.02812
G1 X181.23 Y174.764 E.02812
M73 P59 R0
G1 X181.23 Y175.236 E.0176
M73 P59 R0
G1 X181.154 Y175.999 E.02855
G1 X181.061 Y176.462 E.0176
G1 X180.835 Y177.195 E.02855
G1 X180.648 Y177.641 E.01803
M73 P60 R0
G1 X180.425 Y178.071 E.01803
M73 P60 R0
G1 X180.008 Y178.714 E.02855
G1 X179.712 Y179.082 E.0176
G1 X179.175 Y179.63 E.02855
G1 X178.813 Y179.933 E.0176
M73 P61 R0
G1 X178.179 Y180.363 E.02855
M73 P61 R0
G1 X177.763 Y180.589 E.0176
G1 X177.057 Y180.885 E.02855
G1 X176.605 Y181.024 E.0176
G1 X175.853 Y181.176 E.02855
M73 P62 R0
G1 X175.383 Y181.223 E.0176
M73 P62 R0
G1 X174.617 Y181.223 E.02855
G1 X174.147 Y181.176 E.0176
G1 X173.426 Y181.031 E.02737
;WIPE_START
G1 X172.69 Y180.791 E-.19368
M73 P63 R0
G1 X172.258 Y180.599 E-.11814
M73 P63 R0
G1 X171.603 Y180.227 E-.18818
;WIPE_END
G1 Z.6 F36000
M73 P64 R0
G1 X178.044 Y169.727 Z.6
M73 P64 R0
M73 P65 R0
G1 Z.2
M73 P65 R0
G1 E.5 F1800
;TYPE:Bottom surface
;WIDTH:0.51326
M73 P66 R0
G1 F5400
M73 P66 R0
G1 X179.333 Y171.016 E.06987
G1 X179.747 Y171.512 E.02476
G1 X179.994 Y171.874 E.0168
G1 X180.343 Y172.518 E.02807
G1 X180.468 Y172.816 E.01237
G1 X177.196 Y169.544 E.17735
M73 P67 R0
G1 X176.717 Y169.364 E.01961
M73 P67 R0
G1 X176.226 Y169.239 E.01941
G1 X180.748 Y173.761 E.24508
M73 P68 R0
G1 X180.816 Y174.067 E.01202
M73 P68 R0
G1 X180.863 Y174.541 E.01827
G1 X175.456 Y169.134 E.29307
M73 P69 R0
G1 X175.234 Y169.115 E.00855
M73 P69 R0
G1 X174.775 Y169.118 E.01759
G1 X180.886 Y175.229 E.33122
M73 P70 R0
G1 X180.826 Y175.834 E.0233
M73 P70 R0
G1 X174.162 Y169.171 E.36117
M73 P72 R0
G1 X173.609 Y169.282 E.02164
M73 P72 R0
G1 X180.722 Y176.396 E.38557
M73 P73 R0
G1 X180.566 Y176.905 E.0204
M73 P73 R0
G1 X173.09 Y169.428 E.40523
M73 P74 R0
G1 X172.616 Y169.619 E.01959
M73 P74 R0
M73 P75 R0
G1 X180.383 Y177.387 E.42101
M73 P75 R0
M73 P76 R0
G1 X180.163 Y177.832 E.01904
M73 P76 R0
G1 X172.172 Y169.841 E.43316
M73 P78 R0
G1 X171.992 Y169.935 E.00776
M73 P78 R0
G1 X171.759 Y170.093 E.01081
G1 X179.906 Y178.241 E.4416
M73 P79 R0
G1 X179.633 Y178.633 E.01831
M73 P79 R0
G1 X171.366 Y170.365 E.44812
M73 P81 R0
G1 X171.007 Y170.672 E.01808
M73 P81 R0
G1 X179.324 Y178.988 E.45078
M73 P82 R0
G1 X178.995 Y179.324 E.01803
M73 P82 R0
G1 X170.676 Y171.005 E.45092
M73 P84 R0
G1 X170.371 Y171.366 E.01809
M73 P84 R0
G1 X178.638 Y179.632 E.44804
M73 P85 R0
G1 X178.244 Y179.904 E.01832
M73 P85 R0
M73 P86 R0
G1 X170.094 Y171.754 E.44178
M73 P86 R0
M73 P87 R0
G1 X169.843 Y172.168 E.01856
M73 P87 R0
G1 X177.835 Y180.16 E.43318
M73 P89 R0
G1 X177.615 Y180.279 E.00959
M73 P89 R0
G1 X177.385 Y180.376 E.00954
G1 X169.619 Y172.609 E.42096
M73 P90 R0
G1 X169.435 Y173.091 E.01976
M73 P90 R0
G1 X176.915 Y180.57 E.4054
M73 P91 R0
G1 X176.396 Y180.717 E.02066
M73 P91 R0
M73 P92 R0
G1 X169.279 Y173.6 E.38576
M73 P92 R0
M73 P93 R0
G1 X169.172 Y174.158 E.02178
M73 P93 R0
G1 X175.843 Y180.828 E.36156
M73 P94 R0
G1 X175.229 Y180.88 E.0236
M73 P94 R0
G1 X169.114 Y174.765 E.33146
M73 P96 R0
G1 X169.113 Y175.219 E.01742
M73 P96 R0
G1 X169.136 Y175.452 E.00897
G1 X174.556 Y180.872 E.29377
M73 P97 R0
G1 X174.198 Y180.836 E.01381
M73 P97 R0
G1 X173.769 Y180.75 E.01677
G1 X169.241 Y176.222 E.24542
M73 P98 R0
G1 X169.272 Y176.378 E.00609
M73 P98 R0
G1 X169.532 Y177.179 E.03227
G1 X172.829 Y180.476 E.1787
G1 X172.412 Y180.292 E.01745
M73 P99 R0
G1 X171.776 Y179.93 E.02807
M73 P99 R0
G1 X171.406 Y179.668 E.01738
G1 X171.109 Y179.421 E.01479
G1 X169.717 Y178.029 E.07547
; stop printing object Layer 1 Circle 15mm v0.01.step id:0 copy 0
;WIPE_START
G1 F5400
G1 X171.109 Y179.421 E-.49228
G1 X171.133 Y179.441 E-.00772
;WIPE_END
EXCLUDE_OBJECT_END NAME=Layer_1_Circle_15mm_v0.01.step_id_0_copy_0
M106 S0
;TYPE:Custom
; filament end gcode 
PRINT_END
M73 P100 R0
; EXECUTABLE_BLOCK_END

; filament used [mm] = 16.59
; filament used [cm3] = 0.04
; filament used [g] = 0.05
; filament cost = 0.00
; total filament used [g] = 0.05
; total filament cost = 0.00
; total layers count = 1
; estimated printing time (normal mode) = 10s

; CONFIG_BLOCK_START
; accel_to_decel_enable = 1
; accel_to_decel_factor = 50%
; activate_air_filtration = 0
; activate_chamber_temp_control = 0
; adaptive_bed_mesh_margin = 0
; adaptive_pressure_advance = 0
; adaptive_pressure_advance_bridges = 0
; adaptive_pressure_advance_model = "0,0,0\n0,0,0"
; adaptive_pressure_advance_overhangs = 0
; additional_cooling_fan_speed = 0
; alternate_extra_wall = 0
; auxiliary_fan = 0
; bbl_calib_mark_logo = 1
; bbl_use_printhost = 0
; bed_custom_model = 
; bed_custom_texture = 
; bed_exclude_area = 0x0
; bed_mesh_max = 99999,99999
; bed_mesh_min = -99999,-99999
; bed_mesh_probe_distance = 50,50
; before_layer_change_gcode = TIMELAPSE_TAKE_FRAME\nG92 E0
; best_object_pos = 0.5,0.5
